X: 0601
T: PUTNAM'S HORNPIPE
B: Oliver Ditson "The Boston Collection of Instrumental Music" 1910 p.60 #1
F: http://conquest.imslp.info/files/imglnks/usimg/8/8f/IMSLP175643-PMLP309456-bostoncollection00bost_bw.pdf
M: 2/4
L: 1/16
K: D
AG |\
FDAF dAfa | gfed cBAG | FAdf gefd | ecdB AFGE |\
FDAF dfaf | gfec dcBA | dfeg faeg | f2d2d2 :|
(3gfg |\
afdA FAdf | gfed cdeg | fdba gfed | cdef ecAG |\
FAdf bagf | edcB AGFE | FAdf ebag | f2d2d2 :|

%%sep 1 1 500
%%sep 1 1 500
